icons/evolvere-blue-folders-flat-vivid-dark-fallback/apps/64/rstudio.svg

<?xml version="1.0" encoding="UTF-8" standalone="no"?>
<!-- Created with Inkscape (http://www.inkscape.org/) -->

<svg
   xmlns:dc="http://purl.org/dc/elements/1.1/"
   xmlns:cc="http://creativecommons.org/ns#"
   xmlns:rdf="http://www.w3.org/1999/02/22-rdf-syntax-ns#"
   xmlns:svg="http://www.w3.org/2000/svg"
   xmlns="http://www.w3.org/2000/svg"
   xmlns:sodipodi="http://sodipodi.sourceforge.net/DTD/sodipodi-0.dtd"
   xmlns:inkscape="http://www.inkscape.org/namespaces/inkscape"
   width="64"
   height="64"
   id="svg13094"
   version="1.1"
   inkscape:version="0.91+devel r"
   sodipodi:docname="rstudio.svg">
  <sodipodi:namedview
     id="base"
     pagecolor="#ffffff"
     bordercolor="#666666"
     borderopacity="1.0"
     inkscape:pageopacity="0"
     inkscape:pageshadow="2"
     inkscape:zoom="11.313709"
     inkscape:cx="27.063449"
     inkscape:cy="29.532953"
     inkscape:document-units="px"
     inkscape:current-layer="svg13094"
     showgrid="true"
     inkscape:snap-bbox="true"
     inkscape:bbox-paths="true"
     inkscape:bbox-nodes="true"
     inkscape:snap-bbox-edge-midpoints="true"
     inkscape:snap-bbox-midpoints="true"
     inkscape:object-paths="true"
     inkscape:snap-intersection-paths="true"
     inkscape:object-nodes="true"
     inkscape:snap-smooth-nodes="true"
     inkscape:snap-midpoints="true"
     inkscape:snap-object-midpoints="true"
     inkscape:snap-center="true"
     showguides="true"
     inkscape:guide-bbox="true"
     inkscape:window-width="1920"
     inkscape:window-height="1023"
     inkscape:window-x="-10"
     inkscape:window-y="35"
     inkscape:window-maximized="1"
     inkscape:snap-global="false"
     fit-margin-top="0"
     fit-margin-left="0"
     fit-margin-right="0"
     fit-margin-bottom="0"
     showborder="true"
     inkscape:showpageshadow="false"
     inkscape:snap-page="true">
    <inkscape:grid
       type="xygrid"
       id="grid3075"
       empspacing="5"
       visible="true"
       enabled="true"
       snapvisiblegridlinesonly="true"
       originx="1.6362304e-08px"
       originy="18px" />
  </sodipodi:namedview>
  <defs
     id="defs13096" />
  <metadata
     id="metadata13099">
    <rdf:RDF>
      <cc:Work
         rdf:about="">
        <dc:format>image/svg+xml</dc:format>
        <dc:type
           rdf:resource="http://purl.org/dc/dcmitype/StillImage" />
        <dc:title></dc:title>
      </cc:Work>
    </rdf:RDF>
  </metadata>
  <path
     style="color:#000000;fill:#2d68cb;fill-opacity:1;fill-rule:nonzero;stroke:none;stroke-width:2.28571415;marker:none;visibility:visible;display:inline;overflow:visible;enable-background:accumulate"
     d="M 0 4 L 0 34 L 0 62 L 2 64 L 32 64 L 62 64 L 64 62 L 64 34 L 64 4 L 32 4 L 0 4 z "
     id="path6498" />
  <path
     style="color:#000000;fill:#25afff;fill-opacity:0.18783543;fill-rule:nonzero;stroke:none;stroke-width:1;marker:none;visibility:visible;display:inline;overflow:visible;enable-background:accumulate"
     d="M 0 4 L 0 34 L 0 48.59375 C 18.772253 35.634414 40.507003 26.681383 64 22.96875 L 64 4 L 32 4 L 0 4 z "
     id="path6498-5" />
  <path
     style="color:#000000;fill:#67abff;fill-opacity:1;fill-rule:nonzero;stroke:none;marker:none;visibility:visible;display:inline;overflow:visible;enable-background:accumulate;stroke-width:2.28571415000000000"
     d="M 2 0 L 0 1 L 0 4 L 32 4 L 64 4 L 64 1 L 62 0 L 32 0 L 2 0 z "
     id="path6502" />
  <path
     style="fill:#8dc0ff;fill-opacity:1;fill-rule:nonzero"
     d="M 0,3 0,6 2,4 Z"
     id="path4298"
     inkscape:connector-curvature="0"
     sodipodi:nodetypes="cccc" />
  <path
     d="M 64,6 62,4 64,3 z"
     id="path3028"
     style="fill:#498fea;fill-opacity:1"
     inkscape:connector-curvature="0" />
  <g
     id="g3043"
     inkscape:export-filename="folder.png"
     inkscape:export-xdpi="90"
     inkscape:export-ydpi="90"
     transform="translate(-0.62500009,0.082283)" />
  <g
     id="scalable"
     transform="matrix(1.0385892,0,0,1.0385892,1214.7222,1878.8121)"
     inkscape:label="#g3701"
     style="fill:#ffffff" />
  <path
     style="font-size:medium;font-style:normal;font-variant:normal;font-weight:normal;font-stretch:normal;text-indent:0;text-align:start;text-decoration:none;line-height:normal;letter-spacing:normal;word-spacing:normal;text-transform:none;direction:ltr;block-progression:tb;writing-mode:lr-tb;text-anchor:start;baseline-shift:baseline;color:#000000;fill:#d1eaff;fill-opacity:0.9391771;fill-rule:nonzero;stroke:none;stroke-width:2.5;marker:none;visibility:visible;display:inline;overflow:visible;enable-background:accumulate;font-family:Sans;-inkscape-font-specification:Sans"
     d="m 32.427724,16.904174 c -3.344861,0 -8.039259,1.187965 -13.391489,0.03989 L 18.298357,20.3742 c 1.710103,0.366825 3.368846,0.526729 4.925834,0.578337 l 0,26.633408 -4.846064,0 0,3.509906 13.710572,0 0,-3.509906 -5.354601,0 0,-11.776135 5.075404,0 c 0.145479,0 0.2857,-0.0059 0.428767,-0.01 l 9.732013,14.518249 0.518509,0.777763 0.937304,0 5.025548,0 0,-3.509906 -4.088243,0 -8.336028,-12.424271 c 4.383095,-1.427923 6.951622,-5.030438 7.079641,-8.744852 0.16487,-4.783643 -3.830303,-9.512644 -10.679289,-9.512644 z m 0,3.509906 c 5.37516,0 7.269878,2.967261 7.169383,5.883081 -0.100495,2.915821 -2.31204,6.002738 -7.787605,6.002738 l -5.075404,0 0,-11.397224 c 2.508511,-0.154789 4.519572,-0.488595 5.693626,-0.488595 z"
     id="path3862"
     inkscape:connector-curvature="0" />
</svg>

<svg xmlns="http://www.w3.org/2000/svg" viewBox="0 0 64 64"><g color="#000"><path d="m0 4v30 28l2 2h30 30l2-2v-28-30h-32-32" fill="#2d68cb"/><path d="m0 4v30 14.594c18.772-12.959 40.507-21.912 64-25.625v-18.969h-32-32" fill="#25afff" fill-opacity=".188"/><path d="m2 0l-2 1v3h32 32v-3l-2-1h-30-30" fill="#67abff"/></g><path d="m0 3v3l2-2" fill="#8dc0ff"/><path d="m64 6l-2-2 2-1z" fill="#498fea"/><path d="m32.428 16.904c-3.345 0-8.04 1.188-13.391.04l-.738 3.43c1.71.367 3.369.527 4.926.578v26.633h-4.846v3.51h13.711v-3.51h-5.355v-11.776h5.075c.145 0 .286-.006.429-.01l9.732 14.518.519.778h.937 5.03v-3.51h-4.088l-8.336-12.424c4.383-1.428 6.952-5.03 7.08-8.745.165-4.784-3.83-9.513-10.679-9.513m0 3.51c5.375 0 7.27 2.967 7.169 5.883-.1 2.916-2.312 6-7.788 6h-5.075v-11.397c2.509-.155 4.52-.489 5.694-.489" fill-opacity=".939" color="#000" fill="#d1eaff"/></svg>
